svg/logo/dribbble_fill.svg

<?xml version="1.0" encoding="UTF-8"?>
<svg width="24px" height="24px" viewBox="0 0 24 24" version="1.1" xmlns="http://www.w3.org/2000/svg" xmlns:xlink="http://www.w3.org/1999/xlink">
    <title>dribbble_fill</title>
    <g id="页面-1" stroke="none" stroke-width="1" fill="none" fill-rule="evenodd">
        <g id="Logo" transform="translate(-96.000000, -144.000000)" fill-rule="nonzero">
            <g id="dribbble_fill" transform="translate(96.000000, 144.000000)">
                 <path d="M24,0 L24,24 L0,24 L0,0 L24,0 Z M12.5934901,23.257841 L12.5819402,23.2595131 L12.5108777,23.2950439 L12.4918791,23.2987469 L12.4918791,23.2987469 L12.4767152,23.2950439 L12.4056548,23.2595131 C12.3958229,23.2563662 12.3870493,23.2590235 12.3821421,23.2649074 L12.3780323,23.275831 L12.360941,23.7031097 L12.3658947,23.7234994 L12.3769048,23.7357139 L12.4804777,23.8096931 L12.4953491,23.8136134 L12.4953491,23.8136134 L12.5071152,23.8096931 L12.6106902,23.7357139 L12.6232938,23.7196733 L12.6232938,23.7196733 L12.6266527,23.7031097 L12.609561,23.275831 C12.6075724,23.2657013 12.6010112,23.2592993 12.5934901,23.257841 L12.5934901,23.257841 Z M12.8583906,23.1452862 L12.8445485,23.1473072 L12.6598443,23.2396597 L12.6498822,23.2499052 L12.6498822,23.2499052 L12.6471943,23.2611114 L12.6650943,23.6906389 L12.6699349,23.7034178 L12.6699349,23.7034178 L12.678386,23.7104931 L12.8793402,23.8032389 C12.8914285,23.8068999 12.9022333,23.8029875 12.9078286,23.7952264 L12.9118235,23.7811639 L12.8776777,23.1665331 C12.8752882,23.1545897 12.8674102,23.1470016 12.8583906,23.1452862 L12.8583906,23.1452862 Z M12.1430473,23.1473072 C12.1332178,23.1423925 12.1221763,23.1452606 12.1156365,23.1525954 L12.1099173,23.1665331 L12.0757714,23.7811639 C12.0751323,23.7926639 12.0828099,23.8018602 12.0926481,23.8045676 L12.108256,23.8032389 L12.3092106,23.7104931 L12.3186497,23.7024347 L12.3186497,23.7024347 L12.3225043,23.6906389 L12.340401,23.2611114 L12.337245,23.2485176 L12.337245,23.2485176 L12.3277531,23.2396597 L12.1430473,23.1473072 Z" id="MingCute" fill-rule="nonzero"></path>
                <path d="M13.7739,14.4387 C14.5287,16.6745 15.0504,19.0176 15.3102,21.4392 C14.2742,21.8024 13.1602,22 12.0001,22 C9.93947,22 8.02439,21.3767 6.43313,20.3084 C7.96448,17.4713 10.6051,15.321 13.7739,14.4387 Z M21.5726,14.9019 C20.8558,17.2696 19.2846,19.266 17.2177,20.5326 C16.9338,18.304 16.4403,16.1409 15.7576,14.0636 C17.727,13.861 19.7413,14.1465 21.5726,14.9019 Z M12.1445,10.4845 C12.4773,11.1629 12.7875,11.8544 13.0741,12.558 C9.58025,13.5767 6.65124,15.9207 4.86774,19.0092 C2.8207,16.9264 1.77836,13.9914 2.04124,11.087 C5.38358,11.7954 8.91047,11.5891 12.1445,10.4845 Z M19.7204,5.64365 C21.384,7.66192 22.1929,10.3021 21.9598,12.9039 C19.7706,12.0744 17.3772,11.812 15.0594,12.1334 C14.7373,11.319 14.3855,10.5195 14.0053,9.73629 C16.1603,8.73373 18.0959,7.33894 19.7204,5.64365 Z M7.26566,3.18957 C8.75461,4.87895 10.0734,6.72187 11.1953,8.69155 C8.37305,9.59634 5.31762,9.74339 2.42034,9.12243 C3.18815,6.5627 4.95386,4.43448 7.26566,3.18957 Z M12.0001,2 C14.3884,2 16.5812,2.83725 18.3009,4.23424 C16.8215,5.7846 15.052,7.05569 13.0794,7.96039 C11.9721,5.97735 10.6774,4.11315 9.21935,2.39172 C10.1021,2.13667 11.0352,2 12.0001,2 Z" id="形状" fill="#09244B"></path>
            </g>
        </g>
    </g>
</svg>

<svg xmlns="http://www.w3.org/2000/svg" width="24" height="24"><g fill="none" fill-rule="nonzero"><path d="M24 0v24H0V0h24ZM12.593 23.258l-.011.002-.071.035-.02.004-.014-.004-.071-.035c-.01-.004-.019-.001-.024.005l-.004.01-.017.428.005.02.01.013.104.074.015.004.012-.004.104-.074.012-.016.004-.017-.017-.427c-.002-.01-.009-.017-.017-.018Zm.265-.113-.013.002-.185.093-.01.01-.003.011.018.43.005.012.008.007.201.093c.012.004.023 0 .029-.008l.004-.014-.034-.614c-.003-.012-.01-.02-.02-.022Zm-.715.002a.023.023 0 0 0-.027.006l-.006.014-.034.614c0 .012.007.02.017.024l.015-.002.201-.093.01-.008.004-.011.017-.43-.003-.012-.01-.01-.184-.092Z"/><path fill="#09244B" d="M13.774 14.439a32.815 32.815 0 0 1 1.536 7A9.987 9.987 0 0 1 12 22a9.954 9.954 0 0 1-5.567-1.692 12.029 12.029 0 0 1 7.34-5.87Zm7.799.463a10.024 10.024 0 0 1-4.355 5.63 34.79 34.79 0 0 0-1.46-6.468c1.969-.203 3.983.082 5.815.838Zm-9.428-4.417c.332.678.643 1.37.93 2.073a14.034 14.034 0 0 0-8.207 6.451 10.079 10.079 0 0 1-2.827-7.922c3.343.708 6.87.502 10.104-.602Zm7.575-4.841a10.069 10.069 0 0 1 2.24 7.26 14.094 14.094 0 0 0-6.9-.77 34.782 34.782 0 0 0-1.055-2.398 19.05 19.05 0 0 0 5.715-4.092ZM7.266 3.19a33.098 33.098 0 0 1 3.93 5.502 17.129 17.129 0 0 1-8.776.43A10.027 10.027 0 0 1 7.266 3.19ZM12 2c2.388 0 4.581.837 6.3 2.234a17.043 17.043 0 0 1-5.22 3.726 35.077 35.077 0 0 0-3.86-5.568A10.005 10.005 0 0 1 12 2Z"/></g></svg>
